X:1
T:Title
%%score { ( 1 3 ) | ( 2 4 ) }
L:1/8
M:6/4
K:Db
V:1 treble nm="Grand Piano"
V:3 treble 
V:2 bass 
V:4 bass 
V:1
 z6 z4[Q:1/4=114] DE | F2 D2 F2 [FA]2 [Fd]2 [GB]2 | [FA]6 F4 DE | F2 _F2 =F2 B2 A2 F2 | %4
 [CE]6- [CE]4 [GA]2 | [Fd]2 [Fd]2 [Fd]2 [FA]2 [FA]2 [Fd]2 | d6 B4 cB | A2 d2 F2 [CA]2 [CG]2 [CE]2 | %8
[M:5/4] D2- D2- D6 |[M:1/4] [Fd][Fd] |[M:6/4] c2 c2 G2 B4 cB | [GB]2 [FA]2 [DF]2 [FA]4 [Fd][Fd] | %12
 c2 A2 c2 [=Ge]2 [Gd]2 [GB]2 | A12 | [Fd]2 [Fe]2 [Fd]2 [FA]4 F2 | G2 B2 B2 d4 cB | %16
 A2 d2 F2 [CA]2 [CG]2 [CE]2 |[M:5/4] D2- D2- D6 |] %18
V:2
 z6 z4 [D,F,][D,G,D] | [D,A,D]2 [D,F,]2 [D,A,D]2 [D,D]2 [D,D]2 [D,D]2 | %2
 [D,D]6 [D,A,D]4 [D,F,][D,G,D] | [D,A,D]2 [D,=G,D]2 [D,A,D]2 [G,D]2 [F,A,D]2 [D,A,D]2 | %4
 [A,,A,]6- [A,,A,]4 [A,,A,]2 | [D,A,]2 [D,A,]2 [D,A,]2 [D,D]2 [D,D]2 [D,_C]2 | %6
 [G,B,G]6 [G,DG]4 [G,C_F][G,DF] | [A,DF]2 [A,DF]2[K:bass] [A,D]2 [A,,E,]2 [A,,A,]2 [A,,G,]2 | %8
[M:5/4] [D,F,]2- [D,F,]2- [D,F,]6 |[M:1/4] [D,D][D,D] | %10
[M:6/4][K:treble] [A,EG]2 [A,EG]2 [A,CE]2 [A,CG]4 [A,CG][A,CG] | %11
 [D,D]2 [D,D]2 [D,A,]2 [D,D]4 [D,A,][D,A,] | [E,A,E]2 [E,CE]2 [E,A,E]2 [E,B,]2 [E,E]2 [E,D]2 | %13
 A,2- [A,-C]2 [A,-D]2 [A,E]4 [A,EG]2 | [D,D]2 [D,D]2 [D,D]2 [D,D]4 [D,_CD]2 | %15
 [G,B,D]2[K:treble] [G,DG]2 [G,DG]2 [G,B,G]4 [=G,C_F][G,DF] | %16
 [A,DF]2 [A,DF]2[K:bass] [A,D]2 [A,,E,]2 [A,,A,]2 [A,,G,]2 |[M:5/4] F,4 z2 z4 |] %18
V:3
 x12 | x12 | x12 | x12 | x12 | x12 | x12 | x12 |[M:5/4] x10 |[M:1/4] x2 |[M:6/4] x12 | x12 | x12 | %13
 z2 E2 F2 G4 Bc | x12 | x12 | x12 |[M:5/4] z4 B,2 A,4 |] %18
V:4
 x12 | x12 | x12 | x12 | x12 | x12 | x12 | x4[K:bass] x8 |[M:5/4] x10 |[M:1/4] x2 | %10
[M:6/4][K:treble] x12 | x12 | x12 | .C6 z6 | x12 | x2[K:treble] x10 | x4[K:bass] x8 | %17
[M:5/4] D,4- [D,-G,]2 [D,F,]4 |] %18

